resources/haticons/SVG/browser_not_supported.svg

<!-- Generated by IcoMoon.io -->
<svg version="1.1" xmlns="http://www.w3.org/2000/svg" width="24" height="24" viewBox="0 0 24 24">
<title>browser_not_supported</title>
<path d="M18.984 6v10.5l1.969 1.969q0.047-0.281 0.047-0.469v-12q0-0.844-0.586-1.43t-1.43-0.586h-12.469l1.969 2.016h10.5zM3.234 3.328l-1.266 1.266 1.031 1.031v12.375q0 0.844 0.586 1.43t1.43 0.586h12.328l2.063 2.063 1.266-1.266zM15 18h-9.984v-10.359l10.359 10.359h-0.375z"></path>
</svg>

<svg xmlns="http://www.w3.org/2000/svg" width="24" height="24"><path d="M18.984 6v10.5l1.969 1.969Q21 18.188 21 18V6q0-.844-.586-1.43t-1.43-.586H6.515L8.484 6h10.5zM3.234 3.328L1.968 4.594l1.031 1.031V18q0 .844.586 1.43t1.43.586h12.328l2.063 2.063 1.266-1.266zM15 18H5.016V7.641L15.375 18H15z"/></svg>
